neru-dark-classic/22x22/actions/edit-delete-symbolic.svg

<?xml version="1.0" encoding="UTF-8" standalone="no"?>
<svg
   xmlns:dc="http://purl.org/dc/elements/1.1/"
   xmlns:cc="http://creativecommons.org/ns#"
   xmlns:rdf="http://www.w3.org/1999/02/22-rdf-syntax-ns#"
   xmlns:svg="http://www.w3.org/2000/svg"
   xmlns="http://www.w3.org/2000/svg"
   xmlns:sodipodi="http://sodipodi.sourceforge.net/DTD/sodipodi-0.dtd"
   xmlns:inkscape="http://www.inkscape.org/namespaces/inkscape"
   width="22"
   height="22"
   viewBox="0 0 22 22"
   version="1.1"
   id="svg7"
   sodipodi:docname="edit-delete-symbolic.svg"
   inkscape:version="0.92.1 r">
  <metadata
     id="metadata11">
    <rdf:RDF>
      <cc:Work
         rdf:about="">
        <dc:format>image/svg+xml</dc:format>
        <dc:type
           rdf:resource="http://purl.org/dc/dcmitype/StillImage" />
        <dc:title></dc:title>
      </cc:Work>
    </rdf:RDF>
  </metadata>
  <sodipodi:namedview
     pagecolor="#ffffff"
     bordercolor="#666666"
     borderopacity="1"
     objecttolerance="10"
     gridtolerance="10"
     guidetolerance="10"
     inkscape:pageopacity="0"
     inkscape:pageshadow="2"
     inkscape:window-width="769"
     inkscape:window-height="480"
     id="namedview9"
     showgrid="false"
     inkscape:zoom="10.727273"
     inkscape:cx="11"
     inkscape:cy="11"
     inkscape:window-x="0"
     inkscape:window-y="0"
     inkscape:window-maximized="0"
     inkscape:current-layer="svg7" />
  <defs
     id="defs3">
    <style
       type="text/css"
       id="current-color-scheme">
   .ColorScheme-Text { color:#d3dae3; } .ColorScheme-Highlight { color:#5294e2; }
  </style>
  </defs>
  <path
     style="fill:currentColor;opacity:1"
     class="ColorScheme-Text"
     transform="translate(3 3)"
     d="M 6 0.9921875 C 5 0.9921875 5 1.9921875 5 1.9921875 L 2 1.9921875 C 2 1.9921875 1 1.9956938 1 2.9960938 L 1 3.9960938 L 14 3.9921875 L 14 2.9960938 C 14 1.9960938 13 1.9921875 13 1.9921875 L 10 1.9921875 C 10 1.9921875 10 0.9921875 9 0.9921875 L 6 0.9921875 z M 2 4.9960938 L 2 13.996094 C 2.00005 14.519674 2.47642 14.996044 3 14.996094 L 12 14.996094 C 12.52358 14.996044 12.99995 14.519674 13 13.996094 L 13 4.9960938 L 2 4.9960938 z"
     id="path5" />
</svg>

<svg xmlns="http://www.w3.org/2000/svg" width="22" height="22" version="1.1" id="svg7"><defs id="defs3"><style type="text/css" id="current-color-scheme"></style></defs><path transform="translate(3 3)" d="M6 .992c-1 0-1 1-1 1H2s-1 .004-1 1.004v1l13-.004v-.996c0-1-1-1.004-1-1.004h-3s0-1-1-1H6zM2 4.996v9c0 .524.476 1 1 1h9c.524 0 1-.476 1-1v-9H2z" id="path5" fill="currentColor" opacity="1" color="#d3dae3"/></svg>
